elk.svg

<svg width="180" height="180" viewBox="0 0 250 250" fill="none" xmlns="http://www.w3.org/2000/svg">
<path d="M131.676 48.2479C122.848 49.273 118.156 46.9152 115.331 55.3212C115.331 55.3212 124.815 69.6216 150.09 69.2628C148.677 75.106 149.333 79.4115 149.333 84.5884C149.333 101.81 135.712 116.828 105.695 116.828C90.4593 116.828 71.9446 119.596 57.8189 127.336C47.7796 132.82 39.9247 140.765 36.4488 151.785L40.3888 157.372L47.931 157.474V189.099L38.7291 203.605L41.3726 245.635H50.1003L50.857 211.806C55.1956 209.243 65.134 202.58 73.6094 192.329C85.1118 178.541 93.9403 158.5 83.5478 133.692L91.317 130.36C99.8428 150.709 96.8663 168.341 89.3999 182.539C103.677 182.077 115.936 181.155 126.328 179.412L123.957 150.555L132.332 149.837L140.303 245.635H148.98L150.443 183.256C157.355 180.283 173.095 169.366 180.46 131.436C181.368 126.823 181.873 122.928 182.125 119.596C183.285 111.139 183.941 101.605 184.143 90.7391L171.783 86.7924H209.771L213.454 78.3352C209.872 78.4889 205.584 76.5925 205.584 76.5925L206.441 72.492H214.412L171.278 49.7855C166.486 51.6308 161.441 54.0398 157.909 56.9614C155.084 54.9112 145.297 48.5041 131.676 48.2479Z" fill="#EA9E44"/>
<path d="M165.174 185.512C169.714 180.591 174.961 173.671 179.855 164.394C180.006 168.238 180.258 170.545 180.46 171.724L202.809 190.893L185.959 224.107L178.392 220.519L188.935 196.173L165.174 185.512Z" fill="#A75C26"/>
<path d="M84.0523 191.15C90.5098 191.047 96.5636 190.791 102.264 190.432C94.9493 201.35 86.0703 209.192 82.3875 212.267V245.584H73.7608L69.3717 207.142C74.6184 202.734 79.6633 197.044 84.0523 191.15Z" fill="#A75C26"/>
<path d="M58.4243 6.24353L66.5466 3.93701C70.4816 18.1862 75.3751 25.9771 81.5299 29.9238C87.0793 33.2913 94.5962 33.3836 102.567 32.9479C100.246 32.1791 98.0771 31.1027 96.0592 29.6163C91.5692 26.2846 87.7351 20.749 84.8595 10.7028L92.9313 8.29378C95.1006 15.8797 97.6231 20.2364 101.003 22.748C104.383 25.2083 108.47 25.8233 113.313 26.3359C122.393 27.361 133.744 27.7711 147.921 34.4344C149.838 35.1519 151.805 36.0746 153.722 37.0997L153.722 37.0996C153.47 36.587 153.218 36.0745 152.865 35.5107C150.443 31.6665 145.701 27.6173 136.923 24.3369L139.748 16.341C154.025 21.5691 159.675 29.0012 161.945 34.8957C164.569 41.6102 162.954 46.8639 162.954 46.8639C160.936 47.5303 158.918 48.4529 156.598 49.1705C152.209 46.1464 148.072 43.8655 144.137 42.0715C129.608 36.5871 115.381 40.3288 102.769 41.5077C93.2845 42.379 84.6073 41.969 77.0904 37.1509C69.6744 32.4354 63.1665 23.4143 58.4243 6.24353Z" fill="#A75C26"/>
<path d="M113.918 19.9802C112.253 16.1872 111.244 11.5229 111.698 5.78223L120.073 6.3973C119.568 13.3681 121.99 18.0837 124.714 21.159C121.183 20.544 117.803 20.4722 113.918 19.9802Z" fill="#A75C26"/>
<path d="M166.889 19.1088L172.388 12.7018C186.665 25.3108 177.786 43.3529 177.786 43.3529L169.967 42.4816C169.715 38.3606 169.21 30.7029 165.578 26.3872C167.949 27.6019 169.967 28.9397 172.187 30.9489C172.187 27.2073 171.026 22.7992 166.889 19.1088Z" fill="#A75C26"/>
</svg>

<svg xmlns="http://www.w3.org/2000/svg" width="180" height="180" fill="none" viewBox="0 0 250 250"><path fill="#EA9E44" d="M131.676 48.248c-8.828 1.025-13.52-1.333-16.345 7.073 0 0 9.484 14.3 34.759 13.942-1.413 5.843-.757 10.148-.757 15.325 0 17.222-13.621 32.24-43.638 32.24-15.236 0-33.75 2.768-47.876 10.508-10.04 5.484-17.894 13.429-21.37 24.449l3.94 5.587 7.542.102v31.625l-9.202 14.506 2.644 42.03H50.1l.757-33.829c4.339-2.563 14.277-9.226 22.752-19.477 11.503-13.788 20.331-33.829 9.939-58.637l7.769-3.332c8.526 20.349 5.55 37.981-1.917 52.179 14.277-.462 26.536-1.384 36.928-3.127l-2.371-28.857 8.375-.718 7.971 95.798h8.677l1.463-62.379c6.912-2.973 22.652-13.89 30.017-51.82.908-4.613 1.413-8.508 1.665-11.84 1.16-8.457 1.816-17.991 2.018-28.857l-12.36-3.947h37.988l3.683-8.457c-3.582.154-7.87-1.742-7.87-1.742l.857-4.101h7.971l-43.134-22.707c-4.792 1.846-9.837 4.255-13.369 7.176-2.825-2.05-12.612-8.457-26.233-8.713Z"/><path fill="#A75C26" d="M165.174 185.512c4.54-4.921 9.787-11.841 14.681-21.118.151 3.844.403 6.151.605 7.33l22.349 19.169-16.85 33.214-7.567-3.588 10.543-24.346-23.761-10.661ZM84.052 191.15a387.352 387.352 0 0 0 18.212-.718c-7.315 10.918-16.194 18.76-19.876 21.835v33.317H73.76l-4.39-38.442c5.247-4.408 10.292-10.098 14.681-15.992ZM58.424 6.244l8.123-2.307c3.935 14.25 8.828 22.04 14.983 25.987 5.55 3.367 13.066 3.46 21.037 3.024-2.321-.769-4.49-1.845-6.508-3.332-4.49-3.331-8.324-8.867-11.2-18.913l8.072-2.41c2.17 7.587 4.692 11.943 8.072 14.455 3.38 2.46 7.467 3.075 12.31 3.588 9.08 1.025 20.431 1.435 34.608 8.098 1.917.718 3.884 1.64 5.801 2.666a16.807 16.807 0 0 0-.857-1.59c-2.422-3.843-7.164-7.893-15.942-11.173l2.825-7.996c14.277 5.228 19.927 12.66 22.197 18.555 2.624 6.714 1.009 11.968 1.009 11.968-2.018.666-4.036 1.589-6.356 2.306-4.389-3.024-8.526-5.305-12.461-7.099-14.529-5.484-28.756-1.742-41.368-.563-9.485.871-18.162.461-25.679-4.357-7.416-4.716-13.924-13.737-18.666-30.907Z"/><path fill="#A75C26" d="M113.918 19.98c-1.665-3.793-2.674-8.457-2.22-14.198l8.375.615c-.505 6.971 1.917 11.687 4.641 14.762-3.531-.615-6.911-.687-10.796-1.179ZM166.889 19.109l5.499-6.407c14.277 12.609 5.398 30.65 5.398 30.65l-7.819-.87c-.252-4.121-.757-11.78-4.389-16.095 2.371 1.215 4.389 2.553 6.609 4.562 0-3.742-1.161-8.15-5.298-11.84Z"/></svg>
